icons/user-received-2-line.svg

<svg viewBox="0 0 24 24" fill="currentColor" xmlns="http://www.w3.org/2000/svg">
    <path d="M14 14.252V16.3414C13.3744 16.1203 12.7013 16 12 16C8.68629 16 6 18.6863 6 22H4C4 17.5817 7.58172 14 12 14C12.6906 14 13.3608 14.0875 14 14.252ZM12 13C8.685 13 6 10.315 6 7C6 3.685 8.685 1 12 1C15.315 1 18 3.685 18 7C18 10.315 15.315 13 12 13ZM12 11C14.21 11 16 9.21 16 7C16 4.79 14.21 3 12 3C9.79 3 8 4.79 8 7C8 9.21 9.79 11 12 11ZM20 17H23V19H20V22.5L15 18L20 13.5V17Z"/>
</svg>

<svg xmlns="http://www.w3.org/2000/svg" viewBox="0 0 24 24">
    <g>
        <path fill="none" d="M0 0h24v24H0z"/>
        <path d="M14 14.252v2.09A6 6 0 0 0 6 22l-2-.001a8 8 0 0 1 10-7.748zM12 13c-3.315 0-6-2.685-6-6s2.685-6 6-6 6 2.685 6 6-2.685 6-6 6zm0-2c2.21 0 4-1.79 4-4s-1.79-4-4-4-4 1.79-4 4 1.79 4 4 4zm8 6h3v2h-3v3.5L15 18l5-4.5V17z"/>
    </g>
</svg>
